packages/ui-icons/src/Basic/32/Notification_tab-bar_32.svg

<svg viewBox="0 0 32 32" xmlns="http://www.w3.org/2000/svg">
<path d="M13.49 25C13.3443 25.1243 13.2256 25.2772 13.1413 25.4492C13.057 25.6212 13.0089 25.8087 13 26C13 26.7956 13.3161 27.5587 13.8787 28.1213C14.4413 28.6839 15.2044 29 16 29C16.7956 29 17.5587 28.6839 18.1213 28.1213C18.6839 27.5587 19 26.7956 19 26C18.9911 25.8087 18.943 25.6212 18.8587 25.4492C18.7744 25.2772 18.6557 25.1243 18.51 25H13.49Z" />
<path d="M18 7.23C18.005 7.15341 18.005 7.07659 18 7C18 6.46957 17.7893 5.96086 17.4142 5.58579C17.0391 5.21071 16.5304 5 16 5C15.4696 5 14.9609 5.21071 14.5858 5.58579C14.2107 5.96086 14 6.46957 14 7C13.995 7.07659 13.995 7.15341 14 7.23C9.87 8.23 8 12.23 8 15.51V19.3L6 21.17V24H26V21.17L24 19.29V15.51C24 12.19 22.12 8.2 18 7.23Z" />
</svg>

<svg viewBox="0 0 32 32" xmlns="http://www.w3.org/2000/svg"><path d="M13.49 25a1.4 1.4 0 0 0-.49 1 3 3 0 0 0 6 0 1.4 1.4 0 0 0-.49-1h-5.02ZM18 7.23A1.765 1.765 0 0 0 18 7a2 2 0 1 0-4 0 1.765 1.765 0 0 0 0 .23c-4.13 1-6 5-6 8.28v3.79l-2 1.87V24h20v-2.83l-2-1.88v-3.78c0-3.32-1.88-7.31-6-8.28Z"/></svg>
